assets/images/svg/tick_square_24.svg

<svg width="24" height="24" viewBox="0 0 24 24" fill="none" xmlns="http://www.w3.org/2000/svg">
<path fill-rule="evenodd" clip-rule="evenodd" d="M3.2781 1.0561C2.06482 1.0561 1 1.99941 1 3.35837V20.7926C1 21.9994 2 22.9994 3.20818 22.9994H20.7918C22 23 23 22.1082 23 20.7926V12.0062V3.21976C23 2 22 1 20.7918 1.01294L12.2045 1.00052C7.48141 0.993732 3.2781 1.0561 3.2781 1.0561ZM17.6494 8.07664C17.8301 8.25719 17.8885 8.39173 17.8885 8.62737C17.8885 8.92937 17.7752 9.0523 14.2685 12.5568C10.9647 15.8585 10.625 16.1746 10.3797 16.1746C10.2318 16.1746 10.0115 16.1225 9.88996 16.0588C9.76851 15.9951 8.86872 15.1365 7.89034 14.1508C6.23845 12.4865 6.11152 12.3377 6.11152 12.066C6.11152 11.7213 6.41315 11.3152 6.72777 11.2362C7.09122 11.1451 7.42449 11.3958 8.89203 12.8642L10.3212 14.2942L13.5551 11.066C16.6765 7.95012 16.7999 7.83774 17.0997 7.83774C17.334 7.83774 17.4691 7.8965 17.6494 8.07664Z" fill="black"/>
</svg>

<svg xmlns="http://www.w3.org/2000/svg" width="24" height="24" fill="none">
    <path fill="#000" fill-rule="evenodd"
        d="M3.28 1.06C2.06 1.06 1 2 1 3.36v17.43C1 22 2 23 3.2 23h17.6c1.2.01 2.2-.88 2.2-2.2V3.22C23 2 22 1 20.8 1.02L12.2 1c-4.72 0-8.92.06-8.92.06Zm14.37 7.02c.18.18.24.31.24.55 0 .3-.11.42-3.62 3.93-3.3 3.3-3.64 3.61-3.89 3.61-.15 0-.37-.05-.49-.11s-1.02-.92-2-1.9c-1.65-1.67-1.78-1.82-1.78-2.1 0-.34.3-.74.62-.82.36-.1.7.16 2.16 1.62l1.43 1.43 3.24-3.22c3.12-3.12 3.24-3.23 3.54-3.23.23 0 .37.06.55.24Z"
        clip-rule="evenodd" />
</svg>
